X:81
T:Black Rogue
M:6/8
L:1/8
K:D
d||:"A"cAA "G"BGB| "A"cAA A2d|"A"cAA "G"BGB|"D"AFD D2 d
  |"A"cAA "G" BGB|"A"cAA AGF|"G"G3 ~B3|1"D"AFD D2 d:||2"D"AFD D2 e
||"D"~f3 "G"gfg| "D"afd "A"cBA| "D"~f3 "G"gfg| "D"afd d2 "A"e
|"D"~f3 "G"gfg| "D"afd "A" cBA| "G"G3 "A"~B3|"D"AFD D2 e
||"D"~f3 "G"gfg| "D"afd "A"cBA| "D"~f3 "G"gfg| "D" afd dfg
|"D"agf "A"gfe|"Bmi"fed "A"efd| "A"cBA "G"BAG|"D"AFD D2 d||
